X:174
T:Lochaber No More. RH.174
R:Air
S:Rev.R.Harrison’s MS,c1815,Cumbria
O:England
A:Temple Sowerby,Cumbria
Z:vmp.Simon Wilson. Review PJH, 2008.
M:3/4
L:1/8
Q:1/4=90
K:G
“Slow”G>A|B2B2(B/c/d)|B3A({BA}G2)|\
e2A2(A/B/c)|{B}A4(G>A)|!
B2(cB)(AG)|D3EGA|B2(AG) (G>A)|A4:|!
|:G>A|Bcd2(e/f/g)|{e}d3cB>A|G2g2(ga)|g4G>A|!
Bcd2e2|d>edc(B>A)|G2B2d2|g4d>e|!
(=fef).a.g.f|e3d (B/d/g)|(ed)(cB)(AG)|A4(G>A)|!
(Bcde) (A>G)|D3edc|B2(AG) G>A|G4:|!
M:6/8
Q:3/8=120
|:g|” Brisk”d2G (ABd)|edB A2g|(ed)B d2D|EGG G2:|!
|:A|(B/c/de) (dBG)|(f/g/a)fg2G|(B/c/d)e (dBA)|G2g gde|!
=fFf (e/f/g)e|(dB)g (AB)d|edB d2D|EGG G2:|

